packages/astro-components-stencil/src/icons/collections-bookmark.svg

<svg width="24" height="24" viewBox="0 0 24 24" fill="none" xmlns="http://www.w3.org/2000/svg">
<path fill-rule="evenodd" clip-rule="evenodd" d="M20 2H8C6.9 2 6 2.9 6 4V16C6 17.1 6.9 18 8 18H20C21.1 18 22 17.1 22 16V4C22 2.9 21.1 2 20 2ZM17 20H5C4.45 20 4 19.55 4 19V7C4 6.45 3.55 6 3 6C2.45 6 2 6.45 2 7V20C2 21.1 2.9 22 4 22H17C17.55 22 18 21.55 18 21C18 20.45 17.55 20 17 20ZM17.5 10.5L20 12V4H15V12L17.5 10.5Z" fill="black"/>
</svg>

<svg xmlns="http://www.w3.org/2000/svg" viewBox="0 0 24 24"><g xmlns="http://www.w3.org/2000/svg" id="collections-bookmark" fill-rule="nonzero">
            <path d="M17 20H5c-.55 0-1-.45-1-1V7c0-.55-.45-1-1-1s-1 .45-1 1v13c0 1.1.9 2 2 2h13c.55 0 1-.45 1-1s-.45-1-1-1zm3-18H8c-1.1 0-2 .9-2 2v12c0 1.1.9 2 2 2h12c1.1 0 2-.9 2-2V4c0-1.1-.9-2-2-2zm0 10l-2.5-1.5L15 12V4h5v8z"/>
        </g></svg>
